crypto/nsbt.svg

<svg fill="none" height="32" viewBox="0 0 32 32" width="32" xmlns="http://www.w3.org/2000/svg"><path d="m16 32-16-16 16-16 16 16z" fill="#360b90"/><path d="m.18121 16.1812-.18121-.1812 16-16 16 16-1.2562 1.2562c-2.6177 1.2176-8.593 2.7797-17.317-2.0728-6.09648-3.0016-11.71397.0331-13.24559.9978z" fill="#623ed1" opacity=".37"/><path d="m25.5101 15.5003v1.4955h-3.5102v6.5035h-2l-8-11.4972v11.4972h-2.00002v-6.5035h-3.4928v-1.4955h3.4928v-6.99987h2.00002l8 11.49717v-11.49717h2v6.99987z" fill="#00ffb4"/></svg>

<svg width="32" height="32" fill="none" xmlns="http://www.w3.org/2000/svg"><path d="M16 32 0 16 16 0l16 16-16 16Z" fill="#360B90"/><path opacity=".37" d="M.181 16.181 0 16 16 0l16 16-1.256 1.256c-2.618 1.218-8.593 2.78-17.317-2.073-6.097-3.001-11.714.034-13.246.998Z" fill="#623ED1"/><path d="M25.51 15.5v1.496H22v6.503h-2l-8-11.497V23.5h-2v-6.503H6.507V15.5H10v-7h2l8 11.498V8.5h2v7h3.51Z" fill="#00FFB4"/></svg>
